assets/home/Group 1.svg

<svg width="120" height="77" viewBox="0 0 120 77" fill="none" xmlns="http://www.w3.org/2000/svg">
<mask id="path-1-inside-1_239_753" fill="white">
<path fill-rule="evenodd" clip-rule="evenodd" d="M10.2469 55C12.7555 29.7334 34.0733 10 60 10C85.9267 10 107.244 29.7334 109.753 55H95.6556C93.2218 37.4843 78.1856 24 60 24C41.8144 24 26.7782 37.4843 24.3444 55H10.2469ZM0.205369 55H0V60V65H29H34V60C34 45.6406 45.6406 34 60 34C74.3594 34 86 45.6406 86 60V65H91H120V60V55H119.795C117.254 24.2023 91.4533 0 60 0C28.5467 0 2.74612 24.2023 0.205369 55Z"/>
</mask>
<path d="M10.2469 55L0.295803 54.012L-0.795152 65H10.2469V55ZM109.753 55V65H120.795L119.704 54.012L109.753 55ZM95.6556 55L85.7507 56.3763L86.949 65H95.6556V55ZM24.3444 55V65H33.051L34.2493 56.3763L24.3444 55ZM0 55V45H-10V55H0ZM0.205369 55V65H9.41436L10.1715 55.8222L0.205369 55ZM0 65H-10V75H0V65ZM34 65V75H44V65H34ZM86 65H76V75H86V65ZM120 65V75H130V65H120ZM120 55H130V45H120V55ZM119.795 55L109.828 55.8222L110.586 65H119.795V55ZM60 0C28.8819 0 3.30721 23.6814 0.295803 54.012L20.1979 55.988C22.2038 35.7854 39.2646 20 60 20V0ZM119.704 54.012C116.693 23.6814 91.1181 0 60 0V20C80.7354 20 97.7962 35.7854 99.802 55.988L119.704 54.012ZM95.6556 65H109.753V45H95.6556V65ZM60 34C73.1257 34 83.9943 43.7356 85.7507 56.3763L105.56 53.6237C102.449 31.233 83.2455 14 60 14V34ZM34.2493 56.3763C36.0057 43.7356 46.8743 34 60 34V14C36.7545 14 17.5507 31.233 14.4396 53.6237L34.2493 56.3763ZM10.2469 65H24.3444V45H10.2469V65ZM0 65H0.205369V45H0V65ZM10 60V55H-10V60H10ZM10 65V60H-10V65H10ZM29 55H0V75H29V55ZM34 55H29V75H34V55ZM24 60V65H44V60H24ZM60 24C40.1178 24 24 40.1177 24 60H44C44 51.1634 51.1634 44 60 44V24ZM96 60C96 40.1177 79.8823 24 60 24V44C68.8366 44 76 51.1634 76 60H96ZM96 65V60H76V65H96ZM91 55H86V75H91V55ZM120 55H91V75H120V55ZM110 60V65H130V60H110ZM110 55V60H130V55H110ZM119.795 65H120V45H119.795V65ZM60 10C86.2061 10 107.712 30.1679 109.828 55.8222L129.761 54.1778C126.796 18.2368 96.7005 -10 60 -10V10ZM10.1715 55.8222C12.2879 30.1679 33.7939 10 60 10V-10C23.2995 -10 -6.7957 18.2368 -9.76077 54.1778L10.1715 55.8222Z" fill="url(#paint0_linear_239_753)" mask="url(#path-1-inside-1_239_753)"/>
<circle cx="60" cy="60" r="12" stroke="url(#paint1_linear_239_753)" stroke-width="10"/>
<path d="M50 51L29.5 30.5" stroke="url(#paint2_linear_239_753)" stroke-width="10" stroke-linecap="round"/>
<defs>
<linearGradient id="paint0_linear_239_753" x1="121.971" y1="0" x2="0" y2="0" gradientUnits="userSpaceOnUse">
<stop stop-color="#E1DCFE"/>
<stop offset="1" stop-color="#7E67FD"/>
</linearGradient>
<linearGradient id="paint1_linear_239_753" x1="77.5584" y1="43" x2="43" y2="43" gradientUnits="userSpaceOnUse">
<stop stop-color="#8A54D0"/>
<stop offset="1" stop-color="#D71F7B"/>
</linearGradient>
<linearGradient id="paint2_linear_239_753" x1="45" y1="46" x2="29.5" y2="30.5" gradientUnits="userSpaceOnUse">
<stop stop-color="#C52B8E"/>
<stop offset="1" stop-color="#BEB3FF"/>
</linearGradient>
</defs>
</svg>

<svg xmlns="http://www.w3.org/2000/svg" width="120" height="77" fill="none" xmlns:v="https://vecta.io/nano"><mask id="A" fill="#fff"><path fill-rule="evenodd" d="M10.247 55C12.756 29.733 34.073 10 60 10s47.244 19.733 49.753 45H95.656C93.222 37.484 78.186 24 60 24S26.778 37.484 24.344 55H10.247zM.205 55H0v5 5h29 5v-5c0-14.359 11.641-26 26-26s26 11.641 26 26v5h5 29v-5-5h-.205C117.254 24.202 91.453 0 60 0S2.746 24.202.205 55z"/></mask><path d="M10.247 55l-9.951-.988L-.795 65h11.042V55zm99.506 0v10h11.042l-1.091-10.988-9.951.988zm-14.097 0l-9.905 1.376L86.949 65h8.707V55zm-71.311 0v10h8.707l1.198-8.624L24.344 55zM0 55V45h-10v10H0zm.205 0v10h9.209l.757-9.178L.205 55zM0 65h-10v10H0V65zm34 0v10h10V65H34zm52 0H76v10h10V65zm34 0v10h10V65h-10zm0-10h10V45h-10v10zm-.205 0l-9.967.822.758 9.178h9.209V55zM60 0C28.882 0 3.307 23.681.296 54.012l19.902 1.976C22.204 35.785 39.265 20 60 20V0zm59.704 54.012C116.693 23.681 91.118 0 60 0v20c20.735 0 37.796 15.785 39.802 35.988l19.902-1.976zM95.656 65h14.097V45H95.656v20zM60 34c13.126 0 23.994 9.736 25.751 22.376l19.809-2.753C102.449 31.233 83.246 14 60 14v20zM34.249 56.376C36.006 43.736 46.874 34 60 34V14c-23.245 0-42.449 17.233-45.56 39.624l19.81 2.753zM10.247 65h14.098V45H10.247v20zM0 65h.205V45H0v20zm10-5v-5h-20v5h20zm0 5v-5h-20v5h20zm19-10H0v20h29V55zm5 0h-5v20h5V55zm-10 5v5h20v-5H24zm36-36c-19.882 0-36 16.118-36 36h20c0-8.837 7.163-16 16-16V24zm36 36c0-19.882-16.118-36-36-36v20c8.837 0 16 7.163 16 16h20zm0 5v-5H76v5h20zm-5-10h-5v20h5V55zm29 0H91v20h29V55zm-10 5v5h20v-5h-20zm0-5v5h20v-5h-20zm9.795 10H120V45h-.205v20zM60 10c26.206 0 47.712 20.168 49.828 45.822l19.933-1.644C126.796 18.237 96.701-10 60-10v20zM10.172 55.822C12.288 30.168 33.794 10 60 10v-20C23.3-10-6.796 18.237-9.761 54.178l19.932 1.644z" fill="url(#B)" mask="url(#A)"/><g stroke-width="10"><circle cx="60" cy="60" r="12" stroke="url(#C)"/><path d="M50 51L29.5 30.5" stroke="url(#D)" stroke-linecap="round"/></g><defs><linearGradient id="B" x1="121.971" y1="0" x2="0" y2="0" gradientUnits="userSpaceOnUse"><stop stop-color="#e1dcfe"/><stop offset="1" stop-color="#7e67fd"/></linearGradient><linearGradient id="C" x1="77.558" y1="43" x2="43" y2="43" gradientUnits="userSpaceOnUse"><stop stop-color="#8a54d0"/><stop offset="1" stop-color="#d71f7b"/></linearGradient><linearGradient id="D" x1="45" y1="46" x2="29.5" y2="30.5" gradientUnits="userSpaceOnUse"><stop stop-color="#c52b8e"/><stop offset="1" stop-color="#beb3ff"/></linearGradient></defs></svg>
